Adwaita++-Dark/apps/16/pocket.svg

<svg height="16" viewBox="0 0 16 16" width="16" xmlns="http://www.w3.org/2000/svg" xmlns:xlink="http://www.w3.org/1999/xlink">
  <clipPath id="_clipPath_1GuvfPmyndWM6VTYEx142l0EOi1I5Ip7">
    <path d="m0 0h16v16h-16z"/>
  </clipPath>
  <g clip-path="url(#_clipPath_1GuvfPmyndWM6VTYEx142l0EOi1I5Ip7)">
    <path d="m0 0h16v16h-16z" fill="none"/>
    <path d="m8.011 8.141c-.04-.038-.071-.065-.101-.094-.968-.93-1.936-1.862-2.905-2.79-.445-.426-1.126-.41-1.55.03-.416.433-.411 1.119.028 1.542 1.256 1.214 2.517 2.425 3.779 3.633.42.402 1.068.398 1.495.001.171-.159.337-.323.506-.485 1.079-1.037 2.158-2.075 3.238-3.111.26-.249.396-.55.362-.908-.044-.456-.284-.783-.715-.94-.43-.157-.821-.062-1.152.254-.543.519-1.083 1.04-1.624 1.56-.451.433-.901.866-1.361 1.308zm-.003-7.305c2.175 0 4.35-.001 6.525 0 .673.001 1.253.435 1.421 1.067.026.1.043.206.043.309.001 1.699.009 3.398-.006 5.097-.016 1.736-.541 3.308-1.61 4.68-1.189 1.528-2.722 2.534-4.612 2.97-4.34 1.003-8.486-1.798-9.51-5.718-.136-.523-.229-1.053-.233-1.593-.015-1.808-.027-3.615-.026-5.423 0-.761.679-1.388 1.472-1.389 2.179-.001 4.358 0 6.536 0z" fill="#e6ddff" fill-rule="evenodd"/>
  </g>
</svg>

<svg xmlns="http://www.w3.org/2000/svg" style="isolation:isolate" width="16" height="16" viewBox="0 0 16 16">
 <defs>
  <style id="current-color-scheme" type="text/css">
   .ColorScheme-Text { color:#E6DDFF; } .ColorScheme-Highlight { color:#5294e2; }
  </style>
  <linearGradient id="arrongin" x1="0%" x2="0%" y1="0%" y2="100%">
   <stop offset="0%" style="stop-color:#dd9b44"/>
   <stop offset="100%" style="stop-color:#ad6c16"/>
  </linearGradient>
  <linearGradient id="aurora" x1="0%" x2="0%" y1="0%" y2="100%">
   <stop offset="0%" style="stop-color:#09D4DF"/>
   <stop offset="100%" style="stop-color:#9269F4"/>
  </linearGradient>
  <linearGradient id="fitdance" x1="0%" x2="0%" y1="0%" y2="100%">
   <stop offset="0%" style="stop-color:#1AD6AB"/>
   <stop offset="100%" style="stop-color:#329DB6"/>
  </linearGradient>
  <linearGradient id="oomox" x1="0%" x2="0%" y1="0%" y2="100%">
   <stop offset="0%" style="stop-color:#efefe7"/>
   <stop offset="100%" style="stop-color:#8f8f8b"/>
  </linearGradient>
  <linearGradient id="rainblue" x1="0%" x2="0%" y1="0%" y2="100%">
   <stop offset="0%" style="stop-color:#00F260"/>
   <stop offset="100%" style="stop-color:#0575E6"/>
  </linearGradient>
  <linearGradient id="sunrise" x1="0%" x2="0%" y1="0%" y2="100%">
   <stop offset="0%" style="stop-color:#FF8501"/>
   <stop offset="100%" style="stop-color:#FFCB01"/>
  </linearGradient>
  <linearGradient id="telinkrin" x1="0%" x2="0%" y1="0%" y2="100%">
   <stop offset="0%" style="stop-color:#b2ced6"/>
   <stop offset="100%" style="stop-color:#6da5b7"/>
  </linearGradient>
  <linearGradient id="60spsycho" x1="0%" x2="0%" y1="0%" y2="100%">
   <stop offset="0%" style="stop-color:#df5940"/>
   <stop offset="25%" style="stop-color:#d8d15f"/>
   <stop offset="50%" style="stop-color:#e9882a"/>
   <stop offset="100%" style="stop-color:#279362"/>
  </linearGradient>
  <linearGradient id="90ssummer" x1="0%" x2="0%" y1="0%" y2="100%">
   <stop offset="0%" style="stop-color:#f618c7"/>
   <stop offset="20%" style="stop-color:#94ffab"/>
   <stop offset="50%" style="stop-color:#fbfd54"/>
   <stop offset="100%" style="stop-color:#0f83ae"/>
  </linearGradient>
  <clipPath id="_clipPath_1GuvfPmyndWM6VTYEx142l0EOi1I5Ip7">
   <rect width="16" height="16"/>
  </clipPath>
 </defs>
 <g clip-path="url(#_clipPath_1GuvfPmyndWM6VTYEx142l0EOi1I5Ip7)">
  <rect fill-opacity="0" width="16" height="16"/>
  <path style="fill:currentColor" fill-rule="evenodd" class="ColorScheme-Text" d="M 8.011 8.141 C 7.971 8.103 7.94 8.076 7.91 8.047 C 6.942 7.117 5.974 6.185 5.005 5.257 C 4.56 4.831 3.879 4.847 3.455 5.287 C 3.039 5.72 3.044 6.406 3.483 6.829 C 4.739 8.043 6 9.254 7.262 10.462 C 7.682 10.864 8.33 10.86 8.757 10.463 C 8.928 10.304 9.094 10.14 9.263 9.978 C 10.342 8.941 11.421 7.903 12.501 6.867 C 12.761 6.618 12.897 6.317 12.863 5.959 C 12.819 5.503 12.579 5.176 12.148 5.019 C 11.718 4.862 11.327 4.957 10.996 5.273 C 10.453 5.792 9.913 6.313 9.372 6.833 C 8.921 7.266 8.471 7.699 8.011 8.141 L 8.011 8.141 Z M 8.008 0.836 C 10.183 0.836 12.358 0.835 14.533 0.836 C 15.206 0.837 15.786 1.271 15.954 1.903 C 15.98 2.003 15.997 2.109 15.997 2.212 C 15.998 3.911 16.006 5.61 15.991 7.309 C 15.975 9.045 15.45 10.617 14.381 11.989 C 13.192 13.517 11.659 14.523 9.769 14.959 C 5.429 15.962 1.283 13.161 0.259 9.241 C 0.123 8.718 0.03 8.188 0.026 7.648 C 0.011 5.84 -0.001 4.033 0 2.225 C 0 1.464 0.679 0.837 1.472 0.836 C 3.651 0.835 5.83 0.836 8.008 0.836 L 8.008 0.836 Z"/>
 </g>
</svg>
